X: 38137
T: Sporting Molly
R: reel
M: 4/4
K: Dmixolydian
dcAG FADF|E2 cE dEcE|dcAG FDDF|Adde fde^c|
dcAG FADF|E2 cE dEcE|dcAG FDDF|Add^c d2de||
f2df efge|afge afge|f2df efge|afge fdde|
f2df efge|afge afge|afge fded|Add^c d2de||

